X: 38708
T: Strayaway Child, The
R: jig
M: 6/8
K: Eminor
A|:BEE GEE|BEE G2 A|BEE DAG|FDF A3|
BEE GEE|BEE G2 A|BcB B2 A|GED E3:|
|:Bee BdB|dBG AGA|Bee BdB|dBG A3|
Bee BdB|dBG AGA|B2B B2 A|GED E3|
Bee BdB|dBG AGA|Bee B[d]B|dBG A2 f|
gfe dcB|AGA BGE|AGE DBD|E2E E3||
|:EAG EDE|~G3 BAG|AGE DBD|E3 E2 D|
EAG EDE|GzG BAG|AGE DBD|E2E E3:|
|:efe ded|cBA BGE|GAB dBA|AGE D2 z|
BAG EDE|GAB cBA|BAG EAG|E2E EDE:|
|:Bed efg|fdf edA|Bed efg|fdf e2 f|
gfe dcB|AGA BGE|AGE DBD|E2E E3:|
|:edB edB|AGA BGE|edB edB|AGA ~B3|
edB gfe|dcB AGA|BAG EAG|E2E E3:|

